X:1
T:Bob Chadduck's -- Jig
R:reel
B:Ryan's Mammoth Collection
N:113 633
Z: Contributed by Ray Davies,  ray:davies99.freeserve.co.uk
M:2/4
L:1/16
K:A
vE2AB c<"4"ezu"0"e | fece a2{g}a2 | vE2AB c<"4"ezu"0"e |\
 fedc B"4"e^d"4"e |
zuEAB c<"4"ezu"0"e | fe^de faga | (b>.g)(a>.f) ecAB |\
 zucBG "4"A4 :|
|:vA2{g}a2 A2{g}a2 | fede f4  | z2ue2 e4  | u((3cBA) BG AcBA |
E2{^g}a2 z2{g}ua2 | vfe^de faga | (b>.g)(a>.f) ecAB |\
 zucBG "4"A4 :|
